X:1
T:[ID 2-79]
T:[ID 2-79]
T:Bezeichnung standardisiert: Polonaise Polonoise
T:Urheber unbekannt Datum in der hier transkribierten schriftlichen Quelle: 1767
C:Urheber unbekannt
C:Datum in der hier transkribierten schriftlichen Quelle: 1767
L:1/8
M:3/4
K:A
V:1 treble 
V:1
 e2 (e/f/)(f/e/) (e/a/)(a/f/) | e2 d2 c2 | E2 (E/F/)(F/E/) (E/A/)(A/F/) | E2 D2 C2 | %4
"^O)" (A/c/)(c/B/) (B/d/)(d/c/) c2 | (c/e/)(e/d/) (d/f/)(f/e/) e2 | %6
"^O)" (A/c/)(c/B/) (B/d/)(d/c/) c2 | (c/e/)(e/d/) (d/f/)(f/e/) e2 | f>d e>c d>B | %9
 c/A/B/^G/{G} A4 :: B2 (B/c/)(d/B/) (B/e/)(e/d/) | B2 AG A2 | %12
 (B,/^D/)(D/F/) (F/A/)(A/^c/) (d/f/)(f/a/) | g/f/e/^d/{d} e4 |"^O)" e2 f/e/d/c/{c} d2 | %15
 d2 e/d/c/B/{B} c2 |"^O)" e2 f/e/d/c/{c} d2 | d2 e/d/c/B/{B} c2 | B2 d/4e/4f3/2{e} d/4c/4B3/2 | %19
 A/G/F/E/ E4 | (A/c/)(c/B/) (B/d/)(d/c/) c2 | (c/e/)(e/d/) (d/f/)(f/e/) e2 | f>d e>c d>B | %23
 c/>A/B/>G/{G} A4 :| %24

